assets/svg/bars.svg

<?xml version="1.0" encoding="UTF-8"?>
<svg width="1000px" height="1000px" viewBox="0 0 1000 1000" version="1.1" xmlns="http://www.w3.org/2000/svg" xmlns:xlink="http://www.w3.org/1999/xlink">
    <!-- Generator: sketchtool 52.4 (67378) - http://www.bohemiancoding.com/sketch -->
    <title>bars</title>
    <desc>Created with sketchtool.</desc>
    <g id="新版图标" stroke="none" stroke-width="1" fill="none" fill-rule="evenodd">
        <g id="bars" fill="#323233" fill-rule="nonzero">
            <g id="圆角-类目">
                <path d="M194.444444,277.777778 C163.761958,277.777778 138.888889,252.904708 138.888889,222.222222 C138.888889,191.539736 163.761958,166.666667 194.444444,166.666667 C225.126931,166.666667 250,191.539736 250,222.222222 C250,252.904708 225.126931,277.777778 194.444444,277.777778 Z M306.555556,180.555556 L860.111111,180.555556 C860.663396,180.555556 861.111111,181.003271 861.111111,181.555556 L861.111111,262.888889 C861.111111,263.441174 860.663396,263.888889 860.111111,263.888889 L306.555556,263.888889 C306.003271,263.888889 305.555556,263.441174 305.555556,262.888889 L305.555556,181.555556 C305.555556,181.003271 306.003271,180.555556 306.555556,180.555556 Z M306.555556,458.333333 L860.111111,458.333333 C860.663396,458.333333 861.111111,458.781049 861.111111,459.333333 L861.111111,540.666667 C861.111111,541.218951 860.663396,541.666667 860.111111,541.666667 L306.555556,541.666667 C306.003271,541.666667 305.555556,541.218951 305.555556,540.666667 L305.555556,459.333333 C305.555556,458.781049 306.003271,458.333333 306.555556,458.333333 Z M306.555556,736.111111 L860.111111,736.111111 C860.663396,736.111111 861.111111,736.558826 861.111111,737.111111 L861.111111,818.444444 C861.111111,818.996729 860.663396,819.444444 860.111111,819.444444 L306.555556,819.444444 C306.003271,819.444444 305.555556,818.996729 305.555556,818.444444 L305.555556,737.111111 C305.555556,736.558826 306.003271,736.111111 306.555556,736.111111 Z M194.444444,555.555556 C163.761958,555.555556 138.888889,530.682486 138.888889,500 C138.888889,469.317514 163.761958,444.444444 194.444444,444.444444 C225.126931,444.444444 250,469.317514 250,500 C250,530.682486 225.126931,555.555556 194.444444,555.555556 Z M194.444444,833.333333 C163.761958,833.333333 138.888889,808.460264 138.888889,777.777778 C138.888889,747.095292 163.761958,722.222222 194.444444,722.222222 C225.126931,722.222222 250,747.095292 250,777.777778 C250,808.460264 225.126931,833.333333 194.444444,833.333333 Z" id="Combined-Shape"></path>
            </g>
        </g>
    </g>
</svg>

<svg width="1000" height="1000" xmlns="http://www.w3.org/2000/svg"><path d="M194.444 277.778c-30.682 0-55.555-24.873-55.555-55.556 0-30.682 24.873-55.555 55.555-55.555 30.683 0 55.556 24.873 55.556 55.555 0 30.683-24.873 55.556-55.556 55.556zm112.112-97.222H860.11a1 1 0 0 1 1 1v81.333a1 1 0 0 1-1 1H306.556a1 1 0 0 1-1-1v-81.333a1 1 0 0 1 1-1zm0 277.777H860.11a1 1 0 0 1 1 1v81.334a1 1 0 0 1-1 1H306.556a1 1 0 0 1-1-1v-81.334a1 1 0 0 1 1-1zm0 277.778H860.11a1 1 0 0 1 1 1v81.333a1 1 0 0 1-1 1H306.556a1 1 0 0 1-1-1v-81.333a1 1 0 0 1 1-1zM194.444 555.556c-30.682 0-55.555-24.874-55.555-55.556s24.873-55.556 55.555-55.556C225.127 444.444 250 469.318 250 500s-24.873 55.556-55.556 55.556zm0 277.777c-30.682 0-55.555-24.873-55.555-55.555 0-30.683 24.873-55.556 55.555-55.556 30.683 0 55.556 24.873 55.556 55.556 0 30.682-24.873 55.555-55.556 55.555z" fill="#323233" fill-rule="nonzero"/></svg>
